img/icons/social-icons/icon_facebook.svg

<svg width="13" height="20" viewBox="0 0 13 20" fill="none" xmlns="http://www.w3.org/2000/svg">
<path fill-rule="evenodd" clip-rule="evenodd" d="M5.124 1.75681C6.08748 0.81207 7.39198 0.283203 8.74997 0.283203H11.5C11.8037 0.283203 12.05 0.529447 12.05 0.833203V4.42855C12.05 4.7323 11.8037 4.97855 11.5 4.97855H8.74997C8.64928 4.97855 8.55483 5.01787 8.48686 5.08452C8.41926 5.15081 8.38331 5.23839 8.38331 5.32738V7.47389H11.5C11.6698 7.47389 11.8301 7.55233 11.9343 7.68643C12.0385 7.82052 12.0749 7.99522 12.0329 8.15977L11.1163 11.7551C11.0541 11.9987 10.8347 12.1692 10.5833 12.1692H8.38331V18.8099C8.38331 19.1137 8.13706 19.3599 7.83331 19.3599H4.16664C3.86288 19.3599 3.61664 19.1137 3.61664 18.8099V12.1692H1.41664C1.11288 12.1692 0.866638 11.923 0.866638 11.6192V8.02389C0.866638 7.72013 1.11288 7.47389 1.41664 7.47389H3.61664V5.32738C3.61664 3.98606 4.16015 2.70191 5.124 1.75681ZM8.74997 1.3832C7.67682 1.3832 6.64974 1.80132 5.89414 2.54223C5.1389 3.28277 4.71664 4.28485 4.71664 5.32738V8.02389C4.71664 8.32765 4.4704 8.57389 4.16664 8.57389H1.96664V11.0692H4.16664C4.4704 11.0692 4.71664 11.3155 4.71664 11.6192V18.2599H7.28331V11.6192C7.28331 11.3155 7.52955 11.0692 7.83331 11.0692H10.1559L10.7922 8.57389H7.83331C7.52955 8.57389 7.28331 8.32765 7.28331 8.02389V5.32738C7.28331 4.9396 7.44051 4.56994 7.71672 4.2991C7.99257 4.02862 8.36444 3.87855 8.74997 3.87855H10.95V1.3832H8.74997Z" fill="#666666"/>
</svg>

<svg width="13" height="20" fill="none" xmlns="http://www.w3.org/2000/svg"><path fill-rule="evenodd" clip-rule="evenodd" d="M5.124 1.757A5.18 5.18 0 018.75.283h2.75a.55.55 0 01.55.55V4.43a.55.55 0 01-.55.55H8.75c-.1 0-.195.039-.263.106a.34.34 0 00-.104.242v2.147H11.5a.55.55 0 01.533.686l-.917 3.595a.55.55 0 01-.533.414h-2.2v6.64a.55.55 0 01-.55.55H4.167a.55.55 0 01-.55-.55v-6.64h-2.2a.55.55 0 01-.55-.55V8.024a.55.55 0 01.55-.55h2.2V5.327a5 5 0 011.507-3.57zm3.626-.374a4.08 4.08 0 00-2.856 1.16 3.9 3.9 0 00-1.177 2.784v2.697a.55.55 0 01-.55.55h-2.2v2.495h2.2a.55.55 0 01.55.55v6.64h2.566v-6.64a.55.55 0 01.55-.55h2.323l.636-2.495H7.833a.55.55 0 01-.55-.55V5.327c0-.387.158-.757.434-1.028.276-.27.647-.42 1.033-.42h2.2V1.383h-2.2z" fill="#666"/></svg>
